lib/svgs/statistics-o.svg

<?xml version="1.0" encoding="UTF-8"?>
<svg width="16px" height="16px" viewBox="0 0 16 16" version="1.1" xmlns="http://www.w3.org/2000/svg" xmlns:xlink="http://www.w3.org/1999/xlink">
    <!-- Generator: sketchtool 51.3 (57544) - http://www.bohemiancoding.com/sketch -->
    <title>statistics-o</title>
    <desc>Created with sketchtool.</desc>
    <defs></defs>
    <g id="Icons" stroke="none" stroke-width="1" fill="none" fill-rule="evenodd">
        <g id="Deprecated" transform="translate(-122.000000, -329.000000)" fill="#000000" fill-rule="nonzero">
            <g id="statistics-o" transform="translate(122.000000, 329.000000)">
                <path d="M1.25490196,8.35521784 C1.25490196,11.9071668 4.13432553,14.7865904 7.6862745,14.7865904 C11.2382235,14.7865904 14.117647,11.9071668 14.117647,8.35521784 C14.117647,8.35204844 12.1877599,8.34729503 8.32798573,8.34095759 C7.98145412,8.34095759 7.70053475,8.06003822 7.70053475,7.71350661 L7.70053475,1.92386074 C4.13432553,1.9238453 1.25490196,4.80326887 1.25490196,8.35521784 Z M8.95543671,7.08605563 L14.7163218,7.08605563 C15.041031,7.08605563 15.3120975,7.33379339 15.3412405,7.65719217 C15.3620721,7.88836 15.372549,8.12119502 15.372549,8.35521784 C15.372549,12.60023 11.9312867,16.0414923 7.6862745,16.0414923 C3.44126231,16.0414923 0,12.60023 0,8.35521784 C0,4.11020565 3.44126231,0.668943341 7.6862745,0.668943341 C7.92029732,0.668943341 8.15313234,0.679420211 8.38430017,0.700251861 C8.70769895,0.729394886 8.95543671,1.00046135 8.95543671,1.32517059 L8.95543671,7.08605563 Z M10.6666667,5.96078431 C10.3201016,5.96078431 10.0391683,5.67981266 10.0392157,5.33324756 C10.0392484,5.09422719 10.0392484,5.09422719 10.0393464,4.20286276 C10.0394026,3.61273503 10.0394026,3.61273503 10.0394465,2.96523361 C10.0395231,1.64991768 10.039462,0.796828329 10.0392164,0.628365783 C10.0387106,0.281477237 10.3197778,0 10.6666667,0 C13.6123774,0 16,2.38780716 16,5.33333333 C16,5.67986493 15.7190806,5.96078431 15.372549,5.96078431 L10.6666667,5.96078431 Z M14.6971358,4.70588235 C14.4269451,2.95589112 13.0443857,1.57319104 11.2943479,1.30289817 C11.2943911,1.70687139 11.2943889,2.27163776 11.2943485,2.96530672 C11.2943046,3.61283984 11.2943046,3.61283984 11.2942483,4.20298846 C11.2942248,4.41663991 11.294207,4.57908282 11.2941909,4.70588235 L14.6971358,4.70588235 Z"></path>
            </g>
        </g>
    </g>
</svg>

<svg xmlns="http://www.w3.org/2000/svg" viewBox="0 0 16 16">
    <path d="M1.255 8.355a6.431 6.431 0 0 0 12.863 0c0-.003-1.93-.008-5.79-.014a.627.627 0 0 1-.627-.627v-5.79a6.434 6.434 0 0 0-6.446 6.431zm7.7-1.269h5.761c.325 0 .596.248.625.571A7.686 7.686 0 1 1 8.384.7c.324.03.571.3.571.625v5.761zm1.712-1.125a.627.627 0 0 1-.628-.628v-1.13-1.238V.628c0-.347.28-.628.628-.628A5.333 5.333 0 0 1 16 5.333c0 .347-.28.628-.627.628h-4.706zm4.03-1.255a4.081 4.081 0 0 0-3.403-3.403v3.403h3.403z"/>
</svg>
